X: 203
T:The Monaghan Jig
% Nottingham Music Database
S:Trad, arr Phil Rowe
M:6/8
K:Em
c|:"Em"BGE F2E|"Em"BGE "D"FGA|"Em""C"BGE F2E|"D""Bm7"AFD FGA|
"Em"BGE F2E|"Em"BGE "D"FGA|"G"dcB ABG|"D"FDF AGF::
"Em"EGB efg|"Bm"fed "Em"edB|"Em"EGB "G"dBG|"D"FDF AGF|
"Em"EGB efg|"Bm"fed "Em"edB|"G"dcB ABG|"D"FDF AGF::
"Em"g2e efe|geg bge|"Em"g2e efg|"D"fdf agf|
"Em"g2e efe|geg bge|"G"dcB ABG|"D"FDF AGF:|


